src/assets/rewards-icon.svg

<svg fill="none" height="93" viewBox="0 0 93 93" width="93" xmlns="http://www.w3.org/2000/svg" xmlns:xlink="http://www.w3.org/1999/xlink"><filter id="a" color-interpolation-filters="sRGB" filterUnits="userSpaceOnUse" height="93.511" width="93.511" x="-1" y="0"><feFlood flood-opacity="0" result="BackgroundImageFix"/><feBlend in="SourceGraphic" in2="BackgroundImageFix" mode="normal" result="shape"/><feColorMatrix in="SourceAlpha" result="hardAlpha" type="matrix" values="0 0 0 0 0 0 0 0 0 0 0 0 0 0 0 0 0 0 127 0"/><feOffset dx="-2" dy="2"/><feGaussianBlur stdDeviation=".5"/><feComposite in2="hardAlpha" k2="-1" k3="1" operator="arithmetic"/><feColorMatrix type="matrix" values="0 0 0 0 0 0 0 0 0 0 0 0 0 0 0 0 0 0 0.1 0"/><feBlend in2="shape" mode="normal" result="effect1_innerShadow_3676_24424"/></filter><filter id="b" color-interpolation-filters="sRGB" filterUnits="userSpaceOnUse" height="46.5153" width="48.0269" x="21.4866" y="22.5731"><feFlood flood-opacity="0" result="BackgroundImageFix"/><feBlend in="SourceGraphic" in2="BackgroundImageFix" mode="normal" result="shape"/><feColorMatrix in="SourceAlpha" result="hardAlpha" type="matrix" values="0 0 0 0 0 0 0 0 0 0 0 0 0 0 0 0 0 0 127 0"/><feOffset dx="-1" dy="2"/><feGaussianBlur stdDeviation=".5"/><feComposite in2="hardAlpha" k2="-1" k3="1" operator="arithmetic"/><feColorMatrix type="matrix" values="0 0 0 0 0 0 0 0 0 0 0 0 0 0 0 0 0 0 0.1 0"/><feBlend in2="shape" mode="normal" result="effect1_innerShadow_3676_24424"/></filter><g filter="url(#a)"><path clip-rule="evenodd" d="m46.2555 92.511c25.5462 0 46.2555-20.7093 46.2555-46.2555s-20.7093-46.2555-46.2555-46.2555-46.2555 20.7093-46.2555 46.2555 20.7093 46.2555 46.2555 46.2555zm.2445-11.511c19.0538 0 34.5-15.2223 34.5-34s-15.4462-34-34.5-34-34.5 15.2223-34.5 34 15.4462 34 34.5 34z" fill="#f6c73c" fill-rule="evenodd"/></g><g filter="url(#b)"><path d="m44.0948 23.9646c.5926-1.8553 3.2178-1.8553 3.8104 0l4.1613 13.0279c.2647.8289 1.035 1.3915 1.9051 1.3915h13.538c1.9291 0 2.7401 2.4618 1.1887 3.6084l-11.0109 8.1378c-.6891.5093-.9772 1.4008-.7165 2.217l4.1919 13.1236c.5905 1.8486-1.5332 3.3704-3.0939 2.2169l-10.8802-8.0412c-.7065-.5221-1.6709-.5221-2.3774 0l-10.8802 8.0412c-1.5607 1.1535-3.6844-.3682-3.0939-2.2169l4.1919-13.1236c.2607-.8162-.0274-1.7077-.7165-2.217l-11.0109-8.1378c-1.5514-1.1466-.7404-3.6084 1.1887-3.6084h13.538c.8701 0 1.6404-.5626 1.9051-1.3915z" fill="#f6c73c"/></g></svg>

<svg width="93" height="93" viewBox="0 0 93 93" fill="none" xmlns="http://www.w3.org/2000/svg">
<g filter="url(#filter0_i_3676_24424)">
<path fill-rule="evenodd" clip-rule="evenodd" d="M46.2555 92.511C71.8017 92.511 92.511 71.8017 92.511 46.2555C92.511 20.7093 71.8017 0 46.2555 0C20.7093 0 0 20.7093 0 46.2555C0 71.8017 20.7093 92.511 46.2555 92.511ZM46.5 81C65.5538 81 81 65.7777 81 47C81 28.2223 65.5538 13 46.5 13C27.4462 13 12 28.2223 12 47C12 65.7777 27.4462 81 46.5 81Z" fill="#F6C73C"/>
</g>
<g filter="url(#filter1_i_3676_24424)">
<path d="M44.0948 23.9646C44.6874 22.1093 47.3126 22.1093 47.9052 23.9646L52.0665 36.9925C52.3312 37.8214 53.1015 38.384 53.9716 38.384H67.5096C69.4387 38.384 70.2497 40.8458 68.6983 41.9924L57.6874 50.1302C56.9983 50.6395 56.7102 51.531 56.9709 52.3472L61.1628 65.4708C61.7533 67.3194 59.6296 68.8412 58.0689 67.6877L47.1887 59.6465C46.4822 59.1244 45.5178 59.1244 44.8113 59.6465L33.9311 67.6877C32.3704 68.8412 30.2467 67.3195 30.8372 65.4708L35.0291 52.3472C35.2898 51.531 35.0017 50.6395 34.3126 50.1302L23.3017 41.9924C21.7503 40.8458 22.5613 38.384 24.4904 38.384H38.0284C38.8985 38.384 39.6688 37.8214 39.9335 36.9925L44.0948 23.9646Z" fill="#F6C73C"/>
</g>
<defs>
<filter id="filter0_i_3676_24424" x="-1" y="0" width="93.511" height="93.511" filterUnits="userSpaceOnUse" color-interpolation-filters="sRGB">
<feFlood flood-opacity="0" result="BackgroundImageFix"/>
<feBlend mode="normal" in="SourceGraphic" in2="BackgroundImageFix" result="shape"/>
<feColorMatrix in="SourceAlpha" type="matrix" values="0 0 0 0 0 0 0 0 0 0 0 0 0 0 0 0 0 0 127 0" result="hardAlpha"/>
<feOffset dx="-2" dy="2"/>
<feGaussianBlur stdDeviation="0.5"/>
<feComposite in2="hardAlpha" operator="arithmetic" k2="-1" k3="1"/>
<feColorMatrix type="matrix" values="0 0 0 0 0 0 0 0 0 0 0 0 0 0 0 0 0 0 0.1 0"/>
<feBlend mode="normal" in2="shape" result="effect1_innerShadow_3676_24424"/>
</filter>
<filter id="filter1_i_3676_24424" x="21.4866" y="22.5731" width="48.0269" height="46.5153" filterUnits="userSpaceOnUse" color-interpolation-filters="sRGB">
<feFlood flood-opacity="0" result="BackgroundImageFix"/>
<feBlend mode="normal" in="SourceGraphic" in2="BackgroundImageFix" result="shape"/>
<feColorMatrix in="SourceAlpha" type="matrix" values="0 0 0 0 0 0 0 0 0 0 0 0 0 0 0 0 0 0 127 0" result="hardAlpha"/>
<feOffset dx="-1" dy="2"/>
<feGaussianBlur stdDeviation="0.5"/>
<feComposite in2="hardAlpha" operator="arithmetic" k2="-1" k3="1"/>
<feColorMatrix type="matrix" values="0 0 0 0 0 0 0 0 0 0 0 0 0 0 0 0 0 0 0.1 0"/>
<feBlend mode="normal" in2="shape" result="effect1_innerShadow_3676_24424"/>
</filter>
</defs>
</svg>
